X:540
T:Miller of Dron
R:Strathspay
B:The Athole Collection
M:C
L:1/8
Q:1/4=140
K:A
c/B/|A<FF<A E>F E<C|A,<Ad>c B2 Bc/B/|1 A<FF>A E>F E<C|D<FE>G A2A:|2
e>Bc>G A>EF>C|D>FE>G A2A||
c/d/|e<cc<a e>e f/e/d/c/|e<cc<a f2 f>a|e<c c>a e>e f/e/d/c/|d>Bc>A F2 Fc/d/|
e<cc<a e>e f/e/d/c/|e>fa>g f2 f>g|(3agf (3efg (3aed (3cBA|(3dcB (3cBA (3Ffe
(3dcB|]

